X:574
T:Peas Branle
S:Colin Hume's website,  colinhume.com  - chords can also be printed below the stave.
Q:1/2=120
M:2/2
L:1/4
C:Thoinot Arbeau : Orchesographie, 1589
%%stretchstaff 0
K:Gm
P:A
|: "Bb"B2 Bc | "Gm"d2 dd | "Cm"ed cc | "Gm"d2 G2 :|
|: "-"GA "F"F2 | "-"GA "Gm"BG | "-"GA "Eb"Bc | "F"BA "Gm"G2 :|

